static/img/case.svg

<svg viewBox="0 0 100 100" xmlns="http://www.w3.org/2000/svg"><path d="m88.07 22.59h-24.07v-8a1.5 1.5 0 0 0 -1.5-1.5h-24.97a1.5 1.5 0 0 0 -1.5 1.5v8h-24.1a1.5 1.5 0 0 0 -1.5 1.5v61.33a1.5 1.5 0 0 0 1.5 1.5h76.14a1.5 1.5 0 0 0 1.5-1.5v-61.33a1.5 1.5 0 0 0 -1.5-1.5zm-49.07-6.51h22v6.51h-22zm47.57 67.84h-73.14v-58.33h73.14z" fill="#430632"/></svg>

<svg id="Layer_1" data-name="Layer 1" xmlns="http://www.w3.org/2000/svg" viewBox="0 0 100 100"><title>case</title><path d="M88.07,22.59H64v-8a1.5,1.5,0,0,0-1.5-1.5H37.53a1.5,1.5,0,0,0-1.5,1.5v8H11.93a1.5,1.5,0,0,0-1.5,1.5V85.42a1.5,1.5,0,0,0,1.5,1.5H88.07a1.5,1.5,0,0,0,1.5-1.5V24.09A1.5,1.5,0,0,0,88.07,22.59ZM39,16.08H61v6.51H39ZM86.57,83.92H13.43V25.59H86.57Z" fill="#430632"/></svg>
